X:1
T:Title
%%score { ( 1 3 ) | ( 2 4 ) }
L:1/8
M:4/4
K:F
V:1 treble nm="Grand Piano"
V:3 treble 
V:2 bass 
V:4 bass 
V:1
 z4 z2[Q:1/4=100] [CAc]>[CAc] | [CAc]2 [CGB]2 [CE]2 [Bd]2 | [Ac]4 [CFA]2 [CFA]>[CFA] | %3
 [CEA]2 [B,EG]2 [E,C]2 [DEB]2 |[M:3/4] A6 |[M:1/4] c>c |[M:4/4] c2 B2 E2 d2 | c4 z4 | %8
 [Ge]2 [Gc]2 [Fd]3 [Ec] |[M:3/4] [Ec]6 |[M:1/4] [Cc]2 |[M:4/4] [Af]3 [Ac] [Ge]2 [Ed]2 | c2 A4 c2 | %13
 [cf]3 [Af] e2 d2 |[M:3/4] c6 |[M:1/4] B2 |[M:4/4] A2 B2 c2 f2 | e2 d4 [Fd]2 | %18
 [Fc]3 [F=B] [Ed]2 [Ec]2 |[M:3/4] F6 |] %20
V:2
 z4 z2 F,>F, | C,2 E,2 G,2 [E,G,]2 | [F,A,]4 F,2 F,>F, | C,2 C,2 C,2 C,2 | %4
[M:3/4][K:treble] [F,CF]6 |[M:1/4] [A,CF]>[A,CF] |[M:4/4] [A,CF]2 [G,CE]2[K:bass] [C,C]2 [B,CE]2 | %7
 C4[K:bass] z4 | [C,C]2 [E,C]2 [G,=B,]3 [C,C] |[M:3/4] [C,C]6 |[M:1/4] z2 | %11
[M:4/4] [F,C]3 [F,C] [C,C]2 [C,B,]2 | [F,A,F]2 [F,CF]4 C2 | %13
 [A,C]3 [F,C][K:treble] [G,CG]2 [G,FG]2 |[M:3/4] [CE]2 z2 z2 |[M:1/4] [G,CE]2 | %16
[M:4/4] [F,CF]2 [G,CE]2 [A,CF]2 [A,CF]2 | [B,CF]2 [B,F]4[K:bass] [B,,B,]2 | %18
 [C,A,]3 [C,_A,] [C,G,]2 [C,B,]2 |[M:3/4] [F,A,]6 |] %20
V:3
 x8 | x8 | x8 | x8 |[M:3/4] x6 |[M:1/4] x2 |[M:4/4] x8 | z2 z G [CAc]2 [CGc]>[Gd] | x8 | %9
[M:3/4] x6 |[M:1/4] x2 |[M:4/4] x8 | x8 | x8 |[M:3/4] z2 D2 F2 |[M:1/4] x2 |[M:4/4] x8 | x8 | x8 | %19
[M:3/4] x6 |] %20
V:4
 x8 | x8 | x8 | x8 |[M:3/4][K:treble] x6 |[M:1/4] x2 |[M:4/4] x4[K:bass] x4 | %7
 [A,F]3 G,[K:bass] F,2 E,>[D,=B,] | x8 |[M:3/4] x6 |[M:1/4] x2 |[M:4/4] x8 | x8 | x4[K:treble] x4 | %14
[M:3/4] G2- [B,G]2 [A,C]2 |[M:1/4] x2 |[M:4/4] x8 | x6[K:bass] x2 | x8 |[M:3/4] x6 |] %20

